X:37
T:Cuckoo's Nest, The
T:An Spealad\'oir (The Mower)
R:hornpipe
H:Parts 2 and 3 sometimes played in opposite order for both versions.
H:See also #38, song#193
D:Seamus Ennis: The Fox Chase
D:Willie Clancy: Erin's Lovely Lea (?)
D:De Dannan: Star Spangled Molly
D:Conal O'Grada: The Top of Coom
Z:id:hn-hornpipe-37
M:C|
K:G
dc|BcBA GBdg|fdcB cedc|BcBG FGAB|c2A2 A2dc|
BcBA GBdg|fdcB cedc|(3Bcd BG FGAc|B2G2 G2:|
|:z2|dggf gabg|afd^c d2de|fede fgaf|gfdB cedc|
BcBA GBdg|fdcB cedc|(3Bcd BG FGAc|B2G2 G2:|
|:Bc|dBGB dBGB|dBcA G2AB|cAFA cAFA|cBAG F2BA|
GABc dBdg|bgdB cedc|(3Bcd BG FGdc|B2G2 G2:|
P:Version 2:
|:dc|BcBA GBdg|fdcB cedc|BcBG FGAB|c2A2 A2dc|
BcBA GBdg|fdcB cedc|(3Bcd BG FGAc|B2G2 G2:|
|:Bc|dBGB dBGB|dBcA G2AB|cA=FA cA=FA|cBAG =F2BA|
GABc dg~g2|bgdB cedc|(3Bcd BG FGAc|B2G2 G2:|
|:z2|dggf gabg|afd^c d2de|=fede ^fgaf|gfdB cedc|
BcBA GBdg|fdcB cedc|(3Bcd BG FGAc|B2G2 G2:|

